assets/images/system/icon/services/fire-icon.svg

<svg width="70" height="70" viewBox="0 0 70 70" fill="none" xmlns="http://www.w3.org/2000/svg">
<path fill-rule="evenodd" clip-rule="evenodd" d="M21.7788 0C24.9929 0.0525 37.9808 7.43458 40.4046 24.9608C43.0442 22.3679 44.5142 14.2742 43.75 10.8354C55.2767 19.495 61.25 30.6133 61.25 43.0179C61.25 57.8754 51.2458 70 35.1079 70C18.4012 70 8.75 59.0537 8.75 45.8617C8.75 27.6033 23.485 23.6367 21.7788 0ZM31.2929 57.5838C29.1083 60.0571 30.2196 63.2567 33.5183 63.5483C36.5371 63.8196 38.6488 61.18 39.445 58.3217C40.2413 55.4692 39.7075 52.43 38.3687 49.8838C35.4579 54.3025 33.9354 54.6671 31.2929 57.5838ZM44.1846 62.2738C51.4471 58.9313 55.4196 51.5317 55.4196 43.0821C55.4196 36.2046 52.6779 28.5658 48.1279 22.5487C45.9608 30.9108 39.5996 34.1513 35 35C35.1458 25.6112 34.0725 17.0538 27.4108 10.3892C26.5475 24.1908 14.8079 32.6433 14.5833 45.7217C14.4988 50.1287 16.0825 55.0638 19.6292 58.5988C21.0613 60.025 22.7033 61.1392 24.4825 61.9821C24.1296 60.2088 24.3017 58.3246 25.0513 56.5921C27.7083 50.4496 34.7725 49.8225 37.3071 39.8096C40.0838 41.9942 46.8592 50.0267 45.4096 58.3538C45.1704 59.7217 44.7563 61.0458 44.1846 62.2738Z" fill="#017113"/>
</svg>

<svg xmlns="http://www.w3.org/2000/svg" width="70" height="70" fill="none" xmlns:v="https://vecta.io/nano"><path fill-rule="evenodd" d="M21.779 0c3.214.053 16.202 7.435 18.626 24.961 2.64-2.593 4.11-10.687 3.345-14.125 11.527 8.66 17.5 19.778 17.5 32.182C61.25 57.875 51.246 70 35.108 70 18.401 70 8.75 59.054 8.75 45.862 8.75 27.603 23.485 23.637 21.779 0zm9.514 57.584c-2.185 2.473-1.073 5.673 2.225 5.965 3.019.271 5.13-2.368 5.927-5.227.796-2.852.263-5.892-1.076-8.438-2.911 4.419-4.433 4.783-7.076 7.7zm12.892 4.69c7.262-3.343 11.235-10.742 11.235-19.192 0-6.877-2.742-14.516-7.292-20.533C45.961 30.911 39.6 34.151 35 35c.146-9.389-.928-17.946-7.589-24.611-.863 13.802-12.603 22.254-12.827 35.332-.085 4.407 1.499 9.342 5.046 12.877 1.432 1.426 3.074 2.54 4.853 3.383a9.1 9.1 0 0 1 .569-5.39c2.657-6.143 9.721-6.77 12.256-16.782 2.777 2.185 9.552 10.217 8.102 18.544-.239 1.368-.653 2.692-1.225 3.92z" fill="#017113"/></svg>
